X:1
T:Wirksworth, SM
T:Wirksworth, SM
T:Psalmody, by John Chetham, 1718
T:Public Domain Courtesy of the Cyber Hymnal™
C:Psalmody, by John Chetham, 1718
Z:Public Domain
Z:Courtesy of the Cyber Hymnal™
%%score ( 1 2 ) ( 3 4 )
L:1/8
Q:1/4=105
M:3/4
K:Ab
V:1 treble 
V:2 treble 
V:3 bass 
V:4 bass 
V:1
 F2 | [Fc][FB] [FA]2 [=EG]2 | F4 [Fc]2 | [Ee][Fd] [Ec]2 [EB]2 | [Ec]4 [CA]2 | %5
 [CG][CF] [=Ec]2 [FA]2 | [FB][FA] [=EG]2 [EG]2 | [Fc][FB] [FA]2 [=EG]2 | F4 |] %9
V:2
 F2 | x6 | F4 x2 | x6 | x6 | x6 | x6 | x6 | F4 |] %9
V:3
 F,2 | [A,,C][B,,D] [C,C]2 (CB,) | [F,A,]4 [F,A,]2 | [C,A,][D,A,] [E,A,]2 [E,G,]2 | %4
 [A,,A,]4 [F,A,]2 | [=E,B,][F,A,] [C,G,]2 [D,F,]2 | [B,,D][F,,C] [C,C]2 (C,B,,) | %7
 [A,,C][B,,D] [C,C]2 (CB,) | [F,,A,]4 |] %9
V:4
 F,2 | x4 C,2 | x6 | x6 | x6 | x6 | x6 | x4 C,2 | x4 |] %9

